jsapp/svg-icons/qt-time-lock.svg

<svg height="642" viewBox="0 0 642 642" width="642" xmlns="http://www.w3.org/2000/svg"><path d="m517.18 441.11v.18h-.37v-.2c.03495-.05963.078787-.113583.13-.16h.06c.079919.036077.143923.100081.18.18zm-165.18 66.96c.023543-26.592068 15.79894-50.643855 40.18-61.26v-5.71c-.022895-11.68581 1.599699-23.316641 4.82-34.55l-3.51 4.45c-2.650716 3.314059-6.509441 5.439306-10.727197 5.908154-4.217757.468848-8.449003-.757113-11.762803-3.408154l-67-49.72c-9.482739-7.592267-15.001521-19.082373-15-31.23v-155.55c0-8.836556 7.163444-16 16-16h32c8.836556 0 16 7.163444 16 16v144l58 42.5c1.798486 1.441639 3.262251 3.256845 4.29 5.32 34.663237-48.848575 99.158998-66.154364 153.62-41.22.06-2.193333.09-4.393333.09-6.6 0-137-111-248-248-248s-248 111-248 248 111 248 248 248c10.363094 0 20.71631-.639591 31-1.92zm290 0v107.14c0 14.795708-11.994292 26.79-26.79 26.79h-196.42c-14.795708 0-26.79-11.994292-26.79-26.79v-107.14c0-14.795708 11.994292-26.79 26.79-26.79h13.39v-40.17c0-46.844792 37.975208-84.82 84.82-84.82s84.82 37.975208 84.82 84.82v40.18h13.39c14.791804 0 26.784479 11.988197 26.79 26.78zm-97.91 52c0-14.746003-11.953997-26.7-26.7-26.7s-26.7 11.953997-26.7 26.7 11.953997 26.7 26.7 26.7c14.730396 0 26.677932-11.929621 26.7-26.66zm13.09-119c0-22.190801-17.989199-40.18-40.18-40.18s-40.18 17.989199-40.18 40.18v40.18h80.36z"/></svg>

<svg id="Layer_1" data-name="Layer 1" xmlns="http://www.w3.org/2000/svg" viewBox="0 0 642 642"><path d="M517.18,441.11v.18h-.37v-.2a.68.68,0,0,1,.13-.16H517A.36.36,0,0,1,517.18,441.11ZM352,508.07a66.88,66.88,0,0,1,40.18-61.26v-5.71A124.49,124.49,0,0,1,397,406.55L393.49,411A16,16,0,0,1,371,413.5h0l-67-49.72a40,40,0,0,1-15-31.23V177a16,16,0,0,1,16-16h32a16,16,0,0,1,16,16V321l58,42.5a15.91,15.91,0,0,1,4.29,5.32A124.71,124.71,0,0,1,568.91,327.6q.09-3.29.09-6.6C569,184,458,73,321,73S73,184,73,321,184,569,321,569a250.58,250.58,0,0,0,31-1.92Zm290,0V615.21A26.79,26.79,0,0,1,615.21,642H418.79A26.79,26.79,0,0,1,392,615.21V508.07a26.79,26.79,0,0,1,26.79-26.79h13.39V441.11a84.82,84.82,0,0,1,169.64,0v40.18h13.39A26.79,26.79,0,0,1,642,508.07Zm-97.91,52a26.7,26.7,0,1,0-26.7,26.7A26.7,26.7,0,0,0,544.09,560.11Zm13.09-119a40.18,40.18,0,1,0-80.36,0v40.18h80.36Z"/></svg>
